X:103
T:Jimmy Ward's Jig
R:jig
D:Matt Molloy: Heathery Breeze
Z:id:hn-jig-103
M:6/8
K:G
~G3 GAB|AGE GED|~G3 AGE|GED DEF|~G3 GAB|AGE GAB|cBA BGE|1 DED DEF:|2 DED D2B||
|:cBA BAG|~A3 AGE|BcA BGE|EDE GAB|c2c BAG|ABA ABc|dcA AGE|1 GED D2B:|2 GED DEF||

